public/img/CircleVectorEmilija.svg

<svg fill="none" height="254" viewBox="0 0 838 254" width="838" xmlns="http://www.w3.org/2000/svg"><path d="m752.084 32.7556c-111.633-19.638-224.161-26.80468-339.171-27.67207-103.027-.77702-243.726-15.24003-336.2264 25.96397-46.6059 20.7604-85.08395 73.6665-72.15368 112.3965 8.77638 26.288 31.41708 48.363 65.52738 61.494 82.6987 31.834 191.9997 37.755 284.1967 43.045 102.114 5.859 215.022 8.216 313.648-13.836 41.201-9.212 80.277-23.311 116.084-40.142 16.23-7.628 41.565-18.827 49.084-32.625 14.488-26.585-28.206-64.0996-53.747-80.4544-36.968-23.6717-80.167-35.1814-128.846-38.9459" stroke="#30e1b9" stroke-linecap="round" stroke-linejoin="round" stroke-width="3"/></svg>

<svg width="838" height="254" viewBox="0 0 838 254" fill="none" xmlns="http://www.w3.org/2000/svg">
<path d="M752.084 32.7556C640.451 13.1176 527.923 5.95092 412.913 5.08353C309.886 4.30651 169.187 -10.1565 76.6866 31.0475C30.0807 51.8079 -8.39735 104.714 4.53292 143.444C13.3093 169.732 35.95 191.807 70.0603 204.938C152.759 236.772 262.06 242.693 354.257 247.983C456.371 253.842 569.279 256.199 667.905 234.147C709.106 224.935 748.182 210.836 783.989 194.005C800.219 186.377 825.554 175.178 833.073 161.38C847.561 134.795 804.867 97.2804 779.326 80.9256C742.358 57.2539 699.159 45.7442 650.48 41.9797" stroke="#30E1B9" stroke-width="3" stroke-linecap="round" stroke-linejoin="round"/>
</svg>
